icon-themes/breeze_svg/cmd/sc_quoteparastyle.svg

<svg viewBox="0 0 16 16" xmlns="http://www.w3.org/2000/svg"><path d="m6.2597656 2c-1.00948 0-1.9108212.2841865-2.7070312.8515625-.7962.562648-1.4219732 1.3610264-1.8769532 2.3964844-.45023 1.030733-.6757812 2.1655259-.6757812 3.4042969 0 1.271867.337895 2.2603512 1.015625 2.9648442.67772.704492 1.62574 1.05664 2.84375 1.05664h.1152344l.1210937-.013672 1.5703125 2.339844h1.6640625l-1.9550781-2.566406c1.11848-.373522 2.0011006-1.13622 2.6503906-2.285156.64929-1.1536645.9746094-2.5069445.9746094-4.0625005 0-1.271868-.3325938-2.2707366-.9960938-2.9941406-.6587699-.728133-1.5735206-1.0917969-2.7441406-1.0917969zm-.0917968 1.1484375c.7677599 0 1.3675481.2580715 1.7988281.7734375.43602.515367.6542969 1.2269636.6542969 2.1347656 0 1.06383-.1632244 2.0158149-.4902344 2.8574219-.32228.841608-.7630256 1.4894585-1.3222656 1.9433595-.55451.449173-1.1906101.673828-1.90625.673828-.7772501 0-1.3896038-.251903-1.8398438-.757812-.45023-.51064-.6757813-1.226453-.6757812-2.148438 0-1.026005.1590324-1.9611264.4765624-2.8027344.3175301-.846336.7655501-1.5026181 1.34375-1.9707031.5782001-.468085 1.2310776-.703125 1.9609376-.703125z" fill="#4d4d4d"/><path d="m10 9v2h1v1c0 .552285-.44772 1-1 1v1c1.10457 0 2-.895431 2-2v-1-2zm3 0v2h1v1c0 .552285-.44772 1-1 1v1c1.10457 0 2-.895431 2-2v-1-2z" fill="#1d99f3"/></svg>

<svg xmlns="http://www.w3.org/2000/svg" viewBox="0 0 16 16">
 <path 
     style="fill:#4d4d4d" 
     d="M 6.2597656 2 C 5.2502856 2 4.3489444 2.2841865 3.5527344 2.8515625 C 2.7565344 3.4142105 2.1307612 4.2125889 1.6757812 5.2480469 C 1.2255512 6.2787799 1 7.4135728 1 8.6523438 C 1 9.9242108 1.337895 10.912695 2.015625 11.617188 C 2.693345 12.32168 3.641365 12.673828 4.859375 12.673828 L 4.9746094 12.673828 L 5.0957031 12.660156 L 6.6660156 15 L 8.3300781 15 L 6.375 12.433594 C 7.49348 12.060072 8.3761006 11.297374 9.0253906 10.148438 C 9.6746806 8.9947735 10 7.6414935 10 6.0859375 C 10 4.8140695 9.6674062 3.8152009 9.0039062 3.0917969 C 8.3451363 2.3636639 7.4303856 2 6.2597656 2 z M 6.1679688 3.1484375 C 6.9357287 3.1484375 7.5355169 3.406509 7.9667969 3.921875 C 8.4028169 4.437242 8.6210938 5.1488386 8.6210938 6.0566406 C 8.6210938 7.1204706 8.4578694 8.0724555 8.1308594 8.9140625 C 7.8085794 9.7556705 7.3678338 10.403521 6.8085938 10.857422 C 6.2540838 11.306595 5.6179837 11.53125 4.9023438 11.53125 C 4.1250937 11.53125 3.51274 11.279347 3.0625 10.773438 C 2.61227 10.262798 2.3867187 9.546985 2.3867188 8.625 C 2.3867188 7.598995 2.5457512 6.6638736 2.8632812 5.8222656 C 3.1808113 4.9759296 3.6288313 4.3196475 4.2070312 3.8515625 C 4.7852313 3.3834775 5.4381088 3.1484375 6.1679688 3.1484375 z "
     />
 <path 
     style="fill:#1d99f3" 
     d="M 10 9 L 10 11 L 11 11 L 11 12 C 11 12.552285 10.55228 13 10 13 L 10 14 C 11.10457 14 12 13.104569 12 12 L 12 11 L 12 9 L 10 9 z M 13 9 L 13 11 L 14 11 L 14 12 C 14 12.552285 13.55228 13 13 13 L 13 14 C 14.10457 14 15 13.104569 15 12 L 15 11 L 15 9 L 13 9 z "
     />
 </svg>
